X:1
T:Hymne
T:Moritz Hauptmann
T:Hymne
T:CPDL   —   Creative Commons Attribution Non Commercial 3.0
T:CPDL   —   Creative Commons Attribution Non Commercial 3.0
T:CPDL   —   Creative Commons Attribution Non Commercial 3.0
T:CPDL   —   Creative Commons Attribution Non Commercial 3.0
T:CPDL   —   Creative Commons Attribution Non Commercial 3.0
T:CPDL   —   Creative Commons Attribution Non Commercial 3.0
T:CPDL   —   Creative Commons Attribution Non Commercial 3.0
T:CPDL   —   Creative Commons Attribution Non Commercial 3.0
C:Moritz Hauptmann
Z:CPDL   —   Creative Commons Attribution Non Commercial 3.0
%%score [ 1 2 3 4 ]
L:1/8
Q:1/4=120
M:2/2
K:E
V:1 treble nm="Sopran"
V:2 treble nm="Alt"
V:3 treble-8 nm="Tenor"
V:4 bass nm="Bass"
V:1
!p!"^Etwas bewegt""^Soli, Wiederholung Chor"!<(! B4 G2 G2!<)! | c3!>(! c B4!>)! |!p! A4 G2 A2 | %3
w: Hör' uns, All-|mäch- ti- ger,|hör' uns, All-|
 G3!>(! F E4!>)! |!p! F4 G4 |!mf!!<(! A4 A2 A2 | A4!<)! G2 G2 |!>(! G4 F4!>)! :|!f! B4 c2 d2 | %9
w: gü- ti- ger,|hör' uns,|himm- li- scher|Schöp- fer der|Er- den!|Va- ter, wir|
 e4 d4 | c8 |!>(! c4 B2!>)!!p! A2 |!<(! G4 B4!<)! | !^!B4!mf! (A2 G2) |!>(! F6 ^^F2!>)! | G8 | %16
w: prei- sen|dich,|Va- ter, wir|dan- ken|dir in _|E- wig-|keit!|
!f! e4 d2 c2 | B4 B4 | B4 (B2 A2) | G4 F4 | E4 z4 | z4 z2!p! G2 |!<(! c4 d2!<)! e2 | %23
w: Va- ter, wir|dan- ken|dir in _|E- wig-|keit!|Er-|hör' dei- ner|
 (e2 d2!>(! c2) ^B2!>)! | c8- | c4!p! c4 | c4 B2 A2 |!<(! G4!<)! G4 |!>(! !fermata!G6!>)! z2 | %29
w: Kin- * * der|Fleh'n,|_ be-|hüt' uns wenn|Un- glück|droht.|
 z4 z2!p! G2 |!<(! c4 d2 e2!<)! | f4 g2 a2 | !^!^B6!p! d2 |!<(! d8-!<)! | d4!>(! d2!>)! z2 | %35
w: Be-|schütz' uns in|Angst und in|Not, be-|hüt'|_ uns,|
 z4!p!!<(! ^B4!<)! | c4!>(! ^B2!>)! G2 |!p!!<(! E4 F4!<)! | G6 G2 |!mf! A4 c4 | %40
w: be-|schütz' uns, o|Herr, sieh'|uns in|Gna- den|
!>(! !fermata!B8!>)! |!f!"^Chor"!<(! B4 G2 G2!<)! | c3!>(! c B4!>)! |!p! A4 G2 A2 | %44
w: an.|Hör' uns, All-|mäch- ti- ger,|hör' uns, All-|
!>(! G3 F E4!>)! |!<(! F4 G4!<)! |!f! A4 A2 A2 | A4 G2 G2 |!>(! G4 F4!>)! |!f! B4 c2 d2 | e4 d4 | %51
w: gü- ti- ger,|hör' uns,|himm- li- scher|Schöp- fer der|Er- den!|Dein ist das|Reich, das|
 c6 c2 | c4 B2 A2 | G4 B4 | B4 (A2 G2) |!>(! F6 ^^F2 | G8!>)! |!ff! !^!e4 !^!e4 | !^!e4 !^!e4 | %59
w: Reich, die|Kraft und die|Herr- lich-|keit, in _|E- wig-|keit!|Dein das|Reich, die|
 !^!e4 d2 c2 | (!>!c4 B2) A2 | G4 G4 | (B2 A2 G2)!>(! F2 | B4!>)!!f! e4 |!<(! e8-!<)! | %65
w: Kraft und die|Herr- * lich-|keit, in|E- * * wig-|keit, in|E-|
 e3 c!>(! c4- | c2!>)! z2!f! c4 |!<(! c8-!<)! | c3 B!>(! B4- | B2!>)! z2!f! B4 | B4 B2 A2 | %71
w: * wig- keit,|_ in|E-|* wig- keit,|_ in|E- wig- keit,|
 (G4!>(! F4) | E4!>)! z4 |!p![Q:1/4=110]"^Sehr ruhig" G8- | G4 F2 E2 | D4 E4 | (E8 |!>(! D8)!>)! | %78
w: A- *|men.|Lob|_ dei- nem|heil'- gen|Na-||
!pp! !fermata!E16 |] %79
w: men!|
V:2
!p!!<(! E4 E2 E2!<)! | E3!>(! E E4!>)! |!p! E4 E2 E2 | D3!>(! D C4!>)! |!p! D4 E4 | %5
w: |||||
!mf!!<(! F4 F2 F2 | F4!<)! E2 E2 |!>(! E4 D4!>)! :| z8 |!f! E4 F2 G2 | A3 A A4 | %11
w: ||||Va- ter, wir|prei- sen dich,|
!>(! A4 G2!>)!!p! F2 |!<(! E4 E4!<)! | !^!E4!mf! (F2 E2) |!>(! E4 D4!>)! | E8 |!f! E4 E2 E2 | %17
w: Va- ter, wir|dan- ken|dir in _|E- wig-|keit!|Va- ter, wir|
 F4 (E2 D2) | E4 F4 | E4 D4 | E4 z2!p! G2 | G4 G4 |!<(! G4 G4!<)! | (A4!>(! G2) F2!>)! | %24
w: dan- ken _|dir in|E- wig-|keit! Er-|hö- re|dei- ner|Kin- * der|
 E2!<(! ^E2 F2 G2!<)! | A4!p! G4 | F4 F2 F2 |!<(! F4!<)! E4 |!>(! !fermata!D6!>)!!p! G2 | G4 G4 | %30
w: Fleh'n, be- hü- te|uns, be-|hüt' uns wenn|Un- glück|droht. Be-|schüt- ze|
!<(! G4 G4!<)! | F4 B2 A2 | !^!A6 z2 | z4!p!!<(! G4!<)! | ^^F4!>(! G2!>)! z2 | z4!p!!<(! G4!<)! | %36
w: uns in|Angst und in|Not,|be-|hüt' uns,|be-|
 ^^F4!>(! G2!>)! ^B,2 |!p!!<(! C4 D4!<)! | E6 E2 |!mf! E4 A4 |!>(! !fermata!F8!>)! | %41
w: schütz' uns, o|Herr, sieh'|uns in|Gna- den|an.|
!f!!<(! E4 E2 E2!<)! | E3!>(! E E4!>)! |!p! E4 E2 E2 |!>(! D3 D C4!>)! |!<(! D4 E4!<)! | %46
w: Hör' uns, All-|mäch- ti- ger,|hör' uns, All-|gü- ti- ger,|hör' uns,|
!f! F4 F2 F2 | F4 E2 E2 |!>(! E4 D4!>)! | z8 |!f! E4 F2 G2 | A6 A2 | A4 G2 F2 | E4 E4 | %54
w: himm- li- scher|Schöp- fer der|Er- den!||Dein ist das|Reich, die|Kraft und die|Herr- lich-|
 E4 (F2 E2) |!>(! E4 D4 | E8!>)! |!ff! !^!E4 F2 G2 | !^!A4 (B2 =d2) | !^!c4 B2 A2 | (!>!A4 G2) F2 | %61
w: keit, in _|E- wig-|keit!|Dein ist das|Reich die _|Kraft und die|Herr- * lich-|
 E4 E4 | E6!>(! D2 | E4!>)! z4 | z4!f!!<(! G4!<)! | !>!=G3 G!>(! G4- | G2!>)! z2 z4 | %67
w: keit, in|E- wig-|keit,|in|E- wig- keit,|_|
 z4!f!!<(! =G4!<)! | !>!F3 F!>(! F4- | F2!>)! z2!f! F4 | E4 F2 F2 | (E4!>(! D4) | E4!>)! z4 | %73
w: in|E- wig- keit,|_ in|E- wig- keit,|A- *|men.|
!p! B,8 | C4 C4 | B,4 B,4 | (C8 |!>(! B,8)!>)! |!pp! !fermata!B,16 |] %79
w: Lob|dei- nem|heil'- gen|Na-||men!|
V:3
!p!!<(! G4 B2 B2!<)! | A3!>(! A G4!>)! |!p! c4 B2 c2 | B3!>(! A G4!>)! |!p! B4 B4 | %5
w: Hör' uns, All-|mäch- ti- ger,|hör' uns, All-|gü- ti- ger,|hör' uns,|
!mf!!<(! B4 B2 B2 | B4!<)! B2 c2 |!>(! B4 B4!>)! :|!f! B4 A2 A2 | G4 A2 B2 | (c4 d2) e2 | %11
w: himm- li- scher|Schöp- fer der|Er- den!|Va- ter, wir|prei- sen, wir|prei- * sen|
 f4!p! B4 |!<(! B4 =d4!<)! | !^!c4!mf! c4 |!>(! c4 (B2 A2)!>)! | G8 |!f! G4 A2 A2 | A4 (G2 A2) | %18
w: dich, wir|dan- ken|dir in|E- wig _|keit!|Va- ter wir|dan- ken _|
 B4 c4 | B6 A2 | G4 z4 | z4 z2!p! G2 |!<(! e4 ^B2!<)! c2 | (f4!>(! e2) d2!>)! | %24
w: dir in|E- wig-|keit!|Er-|hör' dei- ner|Kin- * der|
 c2!<(! =B2 A2 G2!<)! | F4!p! G4 | A4 B2 B2 |!<(! ^B4!<)! c4 |!>(! (c2 ^B^A !fermata!B2)!>)! z2 | %29
w: Fleh'n, be- hü- te|uns, be-|hüt' uns wenn|Un- glück|droht. _ _ _|
 z4 z2!p! G2 |!<(! e4 ^B2 c2!<)! | c4 c2 c2 | !^!d6 z2 | z4!p!!<(! ^B4!<)! | c4!>(! ^B2!>)!!p! d2 | %35
w: Be-|schütz' uns in|Angst und in|Not,|be-|hüt' uns, be-|
 d8- | d4!>(! d2!>)! G2 |!p!!<(! G4 =B4!<)! | B6 B2 |!mf! c4 e4 |!>(! (e2 dc !fermata!d4)!>)! | %41
w: schütz'|_ uns, o|Herr, sieh'|uns in|Gna- den|an. _ _ _|
!f!!<(! G4 B2 B2!<)! | A3!>(! A G4!>)! |!p! c4 B2 c2 |!>(! B3 A G4!>)! |!<(! B4 B4!<)! | %46
w: Hör' uns, All-|mäch- ti- ger,|hör' uns, All-|gü- ti- ger,|hör' uns,|
!f! B4 B2 B2 | B4 B2 c2 |!>(! B4 B4!>)! |!f! B4 A2 A2 | G4 A2 B2 | c4 d2 e2 | f4 B4 | B4 =d4 | %54
w: himm- li- scher|Schöp- fer der|Er- den!|Dein ist das|Reich, dein das|Reich und die|Kraft, die|Herr- lich-|
 c4 c4 |!>(! c4 (B2 A2) | G8!>)! |!ff! !^!G4 !^!=d4 | !^!c4 !^!G4 | !^!A4 B2 c2 | (!>!d4 e2) f2 | %61
w: keit, in|E- wig- *|keit!|Dein das|Reich, die|Kraft und die|Herr- * lich-|
 B4 c4 | c4 B4 |!>(! B4!>)! z4 | z4!f!!<(! =d4!<)! | !>!c3 e!>(! e4- | e2!>)! z2 z4 | %67
w: keit, in|E- wig-|keit,|in|E- wig- keit,|_|
 z4!f!!<(! e4!<)! | !>!^d3 d!>(! d4- | d2!>)! z2!f! d4 | e4 d2 c2 | (B6!>(! A2) | G4!>)! z4 | %73
w: in|E- wig- keit,|_ in|E- wig- keit,|A- *|men.|
!p! E8 | E4 F4 | F4 G4 | A8- |!>(! A8!>)! |!pp! !fermata!G16 |] %79
w: Lob|dei- nem|heil'- gen|Na-||men!|
V:4
!p!!<(! E,4 E,2 E,2!<)! | A,,3!>(! C, E,4!>)! |!p! E,4 E,2 E,2 | B,,3!>(! B,, C,4!>)! | %4
w: ||||
!p! B,,4 E,4 |!mf!!<(! D,4 D,2 D,2 | E,4!<)! E,2 ^A,,2 |!>(! B,,4 B,,4!>)! :|!f! G,4 F,2 F,2 | %9
w: |||||
 E,4 E,2 E,2 | (A,2 G,2 F,2) E,2 | D,6!p! D,2 |!<(! E,4 G,,4!<)! | !^!A,,4!mf! A,,4 | %14
w: ||dich, wir|dan- ken|dir in|
!>(! B,,4 B,,4 | E,4!>)!!f! D,2 C,2 | ^B,,4 C,2 C,2 | D,4 (E,2 F,2) | G,4 A,4 | B,4 B,,4 | E,4 z4 | %21
w: E- wig-|keit! Va- ter,|Va- ter, wir|dan- ken _|dir in|E- wig-|keit!|
 z8 | z8 | z8 | z2!<(! C,2 D,2 ^E,2!<)! | F,4!p! =E,4 | D,4 D,2 D,2 |!<(! D,4!<)! C,4 | %28
w: |||be- hü- te|uns, be-|hüt' uns wenn|Un- glück|
!>(! !fermata!G,,6!>)! z2 | z8 | z4 z2 C,2 | A,4 ^E,2 F,2 | !^!F,6 z2 | z4!p!!<(! G,4!<)! | %34
w: droht.||in|Angst und in|Not,|be-|
 A,4!>(! G,2!>)! z2 | z4!p!!<(! G,4!<)! | A,4!>(! G,2!>)! G,,2 |!p!!<(! C,4 =B,,4!<)! | E,6 =D,2 | %39
w: hüt' uns,|be-|schütz' uns, o|Herr, sieh'|uns in|
!mf! C,4 A,,4 |!>(! !fermata!B,,8!>)! |!f!!<(! E,4 E,2 E,2!<)! | E,3!>(! E, E,4!>)! | %43
w: Gna- *|an.|Hör' uns, All-|mäch- ti- ger,|
!p! E,4 E,2 E,2 |!>(! B,,3 B,, C,4!>)! |!<(! B,,4 E,4!<)! |!f! D,4 D,2 D,2 | E,4 E,2 ^A,,2 | %48
w: hör' uns, All-|gü- ti- ger,|hör' uns,|himm- li- scher|Schöp- fer der|
!>(! B,,4 B,,4!>)! |!f! G,4 F,2 F,2 | E,8 | (!^!A,2 !^!G,2) !^!F,2 !^!E,2 | D,6 D,2 | E,4 G,,4 | %54
w: Er- den!|Dein ist das|Reich,|dein _ ist die|Kraft, die|Herr- lich-|
 A,,4 A,,4 |!>(! B,,4 B,,4 | E,8!>)! |!ff! !^!E,4 !^!E,4 | !^!E,4 !^!E,4 | !^!A,,4 A,,2 A,,2 | %60
w: keit, in|E- wig-|keit!|Dein das|Reich, die|Kraft und die|
 (!>!B,,4 C,2) D,2 | E,4 C,4 | [F,,F,]4 ([B,,B,]2!>(! [A,,A,]2) | [G,,G,]4!>)! z4 | %64
w: Herr- * lich-|keit, in|E- wig- *|keit,|
 z4!f!!<(! B,4!<)! | !>!^A,3 A,!>(! A,4- | A,2!>)! z2 z4 | z4!f!!<(! ^A,4!<)! | %68
w: in|E- wig- keit,|_|in|
 !>!=A,3 A,!>(! A,4- | A,2!>)! z2!f! A,4 | G,4 A,2 A,2 | (B,4!>(! B,,4) | E,4!>)! z4 |!p! E,8 | %74
w: E- wig- keit,|_ in|E- wig- keit,|A- *|men.|Lob|
 A,,4 A,,4 | A,,4 G,,4 | (F,,8 |!>(! B,,8)!>)! |!pp! !fermata![E,,E,]16 |] %79
w: dei- nem|heil'- gen|Na-||men!|

